X:19
T:Julia Delaney
M:2/2
L:1/8
K:Dm
"Dm"dcAG F2 DF|"C"E2 CD "Dm"FED^c|dcAG F2 DF|"Bb"Addc "C"defe|
"Dm"dcAG F2 DF|"C"E2 CD "Dm"FED^c|"D"dcAG "Bb"FDDF|"C"Addc "Dm"d4:|:
"Dm"f2 fe fagf|"C"ecgc acgc|"Dm"fede fagf|"C"edce "Dm"d2 de|
"Dm"f2 fe fagf|"C"dcgc acgc|"Dm"fedf "Bb"edc_B|1"C"Addc "Dm"d2 de:|2"C"A
dd
c "Dm"d4||
